public/images/stacks/aws-lambda.svg

<svg xmlns="http://www.w3.org/2000/svg" width="256" height="310" preserveAspectRatio="xMidYMid" viewBox="0 0 256 310"><path fill="#9D5025" d="m0 245.262 16.322 8.161L19 248.668V59.333l-2.678-3.494L0 64v181.262"/><path fill="#F68536" d="m47.678 63.57-31.356-7.731v197.584l31.356-7.302V63.57"/><path fill="#6B3A19" d="m143.893 78.604 22.335-11.597 74.309 28.778-19.758 2.577-76.886-19.758"/><path fill="#FBBF93" d="m144.752 230.658 21.906 11.597 74.308-28.778-19.758-2.578-76.456 19.759"/><path fill="#9D5025" d="m150.336 198.872 39.087 5.155 2.244-4.027v-90l-2.244-4.765-39.087 5.154v88.483M35.651 45.96l24.054-12.027L62.333 39v231l-2.628 5.329-24.054-12.027V45.96"/><path fill="#F68536" d="m108.671 259.007-48.966 15.892V33.933l48.966 15.893v209.181"/><path fill="#9D5025" d="M89.772 289.933 128 309.262l4-4.595v-299L128 0 89.772 19.329v270.604M219.919 98.362l19.759-2.577 1.697 2.465V211l-1.697 2.906-19.759-2.577V98.362"/><path fill="#F68536" d="M189.423 105.235v99.221l40.805-49.825-40.805-49.396"/><path fill="#F68536" d="M239.678 55.839 128 0v309.262l128-64V64l-16.322-8.161Zm0 158.217-73.45 21.936V73.27l73.45 21.936v118.85Z"/></svg>

<svg xmlns="http://www.w3.org/2000/svg" xmlns:xlink="http://www.w3.org/1999/xlink" width="256" height="310" preserveAspectRatio="xMidYMid" version="1.1" viewBox="0 0 256 310"><g><path fill="#9D5025" d="M0,245.262 L16.322,253.423 L19,248.668 L19,59.333 L16.322,55.839 L0,64 L0,245.262"/><path fill="#F68536" d="M47.678,63.57 L16.322,55.839 L16.322,253.423 L47.678,246.121 L47.678,63.57"/><path fill="#6B3A19" d="M143.893,78.604 L166.228,67.007 L240.537,95.785 L220.779,98.362 L143.893,78.604"/><path fill="#FBBF93" d="M144.752,230.658 L166.658,242.255 L240.966,213.477 L221.208,210.899 L144.752,230.658"/><path fill="#9D5025" d="M150.336,198.872 L189.423,204.027 L191.667,200 L191.667,110 L189.423,105.235 L150.336,110.389 L150.336,198.872"/><path fill="#9D5025" d="M35.651,45.96 L59.705,33.933 L62.333,39 L62.333,270 L59.705,275.329 L35.651,263.302 L35.651,45.96"/><path fill="#F68536" d="M108.671,259.007 L59.705,274.899 L59.705,33.933 L108.671,49.826 L108.671,259.007"/><path fill="#9D5025" d="M89.772,289.933 L128,309.262 L132,304.667 L132,5.667 L128,0 L89.772,19.329 L89.772,289.933"/><path fill="#9D5025" d="M219.919,98.362 L239.678,95.785 L241.375,98.25 L241.375,211 L239.678,213.906 L219.919,211.329 L219.919,98.362"/><path fill="#F68536" d="M189.423,105.235 L189.423,204.456 L230.228,154.631 L189.423,105.235"/><path fill="#F68536" d="M239.678,55.839 L128,0 L128,309.262 L256,245.262 L256,64 L239.678,55.839 L239.678,55.839 Z M239.678,214.056 L166.228,235.992 L166.228,73.27 L239.678,95.206 L239.678,214.056 L239.678,214.056 Z"/></g></svg>
